remix/Map/bus-line.svg

<svg viewBox="0 0 24 24" fill="currentColor" xmlns="http://www.w3.org/2000/svg"><path d="M17 20H7V21C7 21.5523 6.55228 22 6 22H5C4.44772 22 4 21.5523 4 21V20H3V12H2V8H3V5C3 3.89543 3.89543 3 5 3H19C20.1046 3 21 3.89543 21 5V8H22V12H21V20H20V21C20 21.5523 19.5523 22 19 22H18C17.4477 22 17 21.5523 17 21V20ZM19 12V5H5V12H19ZM19 14H5V18H19V14ZM6 15H10V17H6V15ZM14 15H18V17H14V15Z"/></svg>

<svg viewBox="0 0 24 24" xmlns="http://www.w3.org/2000/svg"><path fill="none" d="M0 0h24v24H0Z"/><path d="M17 20H7v1 0c0 .55-.45 1-1 1H5v0c-.56 0-1-.45-1-1v-1H3v-8H2V8h1V5v0c0-1.11.89-2 2-2h14v0c1.1 0 2 .89 2 2v3h1v4h-1v8h-1v1 0c0 .55-.45 1-1 1h-1v0c-.56 0-1-.45-1-1v-1Zm2-8V5H5v7h14Zm0 2H5v4h14v-4ZM6 15h4v2H6v-2Zm8 0h4v2h-4v-2Z"/></svg>
